!!!!SEGMENT: pl-kk--kk-i-134--001_salepico-josquino--benedicite-dominum.krn
!!!cenid: 16xx:741
!!!COM: Salèpico, Josquino
!!!COM-rismid: pe30008275
!!!CDT: <1575->1585
!!!CNT:
!!!OTL: Benedicite dominum
!!!PDT:
!!!AGN: Sacred
!!!SMS-siglum: PL-Kk
!!!SMS-shelfmark: Kk.I.134
!!!SMS-shelfwork: 001 W
!!!SMS-variant:
!!!SMS-altvar:
!!!NIFC-rismid: 1001143939
!!!URL-scan: http://repozytorium.nifc.pl/skany/pl-kk-nut--i-134
!!!ONB-nifc: UWAGA: utwory w zbiorze: 1. Benedicte dominum, 2. Gaudent in caelis, 3. Domine non est exaltatum – Domine… (1), 3. Domine non est exaltatum – Sicut ablactus est (2), 4. Hodie Christus
**kern	**text
*Iempty	*
*I"Baſso.	*
*I'B	*
*clefF4	*
*k[]	*
*d:	*
*M2/2	*
*met(c|)	*
=1-	=1-
!LO:TX:t=P:problem:all2\right	!
!LO:TX:t=P:problem:kreski taktowe	!
00r	.
=2-	=2-
.	.
=3-	=3-
.	.
=4-	=4-
.	.
=5-	=5-
0r	.
=6-	=6-
=7-	=7-
1E\	Be-
=8-	=8-
2C/	-ne-
2.D/	-di-
=9-	=9-
.	.
4D/	-ci-
2C/	-te
=10-	=10-
2D/	Do-
2C/	-mi-
=11-	=11-
1BB/	-num
=12-	=12-
2.AA/	o-
4BB/	.
=13-	=13-
4C/	.
4D/	.
*2\right	*
2E\	.
=14-	=14-
2BB/	-mnes
2C/	E-
=15-	=15-
2E\	-le-
2E\	-cti
=16-	=16-
1BB/	E-
=17-	=17-
!LO:TX:t=P:problem:kreska pseudotaktowa	!
1E\	-jus
=18-	=18-
!LO:TX:a:t=1-.	!
1r	.
=19-	=19-
2r	.
2A\	be-
=20-	=20-
2F\	-ne-
2.A\	-di-
=21-	=21-
4A\	-ci-
2G\	-te
=22-	=22-
2A\	Do-
2F\	-mi-
=23-	=23-
1E\	-num
=24-	=24-
2.D/	o-
4E/	.
!!LO:LB:g=original
=25-	=25-
4F\	.
4G\	.
2A\	.
=26-	=26-
2E\	-mnes
1F\	E-
=27-	=27-
1A\	-le-
=28-	=28-
2G\	-cti
=29-	=29-
2.F\	E-
4E\	.
=30-	=30-
2D/	.
2C/	.
=31-	=31-
2.D/	.
4C/	.
=32-	=32-
!LO:TX:t=P:problem:kreska pseudotaktowa	!
1BB/	.
=33-||	=33-||
*M3/1	*
0AA/	-jus
!LO:TX:t=P:problem:kreska pseudotaktowa	!
1r	.
=34-	=34-
1.A\	a-
2A\	-gi-
!LO:TX:t=P:problem:kreska pseudotaktowa	!
1A\	-te
=35-	=35-
0G-X\	Di-
1D\	-es
=36-	=36-
1E\	lae-
1A\	-ti-
1F\	-ti-
=37-	=37-
0E\	-ae
1r	.
=38-	=38-
*	*ij
1.AA/	a-
2AA/	-gi-
1AA/	-te
!!LO:LB:g=original
=39-	=39-
0E\	Di-
1BB/	-es
=40-	=40-
1C/	lae-
1D\	-ti-
!LO:TX:t=P:problem:kreska pseudotaktowa	!
1E\	-ti-
=41-	=41-
*M2/2	*
*met(c|)	*
1AA/	-ae
*	*Xij
=42-	=42-
00r	.
=43-	=43-
.	.
=44-	=44-
.	.
=45-	=45-
.	.
=46-	=46-
2r	.
2E\	et
=47-	=47-
2D#X\	con-
2E\	-fi-
=48-	=48-
4BB/	-te-
4C/	.
4Dny/	.
4E/	.
=49-	=49-
2.F\	mi-
4E\	-ni
=50-	=50-
2D\	il-
2E\	-li
=51-	=51-
2AA/	hym-
2.A\	.
=52-	=52-
8Gny\L	.
8F\J	.
4E\	.
4F\	.
=53-	=53-
4G\	.
4A\	.
2B\	.
=54-	=54-
!LO:TX:t=P:problem:kreska pseudotaktowa	!
1F\	-nus
=55-	=55-
2r	.
2.E\	om-
=56-	=56-
4E\	-ni-
2D\	-b(us)
=57-	=57-
2C/	s(an)-
2AA/	-ctis
!!LO:LB:g=original
=58-	=58-
1E\	e-
=59-	=59-
!LO:TX:t=P:problem:kreska pseudotaktowa	!
1BB/	-jus
=60-	=60-
0r	.
=61-	=61-
.	.
=62-	=62-
2.E\	Fi-
4E\	-l-
=63-	=63-
1E\	-js
=64-	=64-
1A\	Is-
=65-	=65-
1F\	-ra-
=66-	=66-
1E\	-el
=67-	=67-
2.D/	po-
4D/	-pu-
=68-	=68-
!LO:TX:t=P:problem:kreska pseudotaktowa	!
1AA/	-lo
=69-	=69-
2r	.
2E\	ap-
=70-	=70-
2F\	-pro-
2G\	pin-
=71-	=71-
1.A\	-quan-
=72-	=72-
2G\	-ti
=73-	=73-
1F\	si-
=74-	=74-
1E\	.
=75-	=75-
1D\	.
=76-	=76-
!LO:TX:t=P:problem:kreska pseudotaktowa	!
1E\	-bi
=77-	=77-
2.A\	glo-
4G\	-ri-
=78-	=78-
2F\	-a
2D/	haec
=79-	=79-
!LO:TX:t=P:problem:kreska pseudotaktowa	!
1A\	est
=80-	=80-
2r	.
2.A\	om-
=81-	=81-
4A\	-ni-
2G\	-bus
!!LO:LB:g=original
=82-	=82-
2A\	San-
2F\	.
=83-	=83-
1E\	-ctis
=84-	=84-
1F\	E-
=85-	=85-
!LO:TX:t=P:problem:kreska pseudotaktowa	!
1E\	-jus
=86-	=86-
1r	.
=87-	=87-
2.E\	glo-
4D/	-ri-
=88-	=88-
2C/	-a
2AA/	haec
=89-	=89-
!LO:TX:t=P:problem:kreska pseudotaktowa	!
1E\	est
=90-	=90-
*	*ij
2.A\	glo-
4G\	-ri-
=91-	=91-
2F\	-a
2D/	haec
=92-	=92-
1A\	est
*	*Xij
=93-	=93-
2r	.
2.A\	om-
=94-	=94-
4A\	-ni-
2G\	-bus
=95-	=95-
2A\	S(an)-
2F\	-ctis
=96-	=96-
0E\	E-
=97-	=97-
=98-	=98-
2AA/	-jus
*	*ij
2.D/	om-
=99-	=99-
4D/	-ni-
2C/	-bus
=100-	=100-
2D/	San-
2AA/	-ctis
=101-	=101-
1D\	E-
=102-	=102-
00AA/;	-jus
=103-	=103-
.	.
=-	=-
.	.
=-	=-
.	.
==	==
*-	*-
!!!EED: Leszek Kubiak
!!!EST: 2021-02-16
!!!AIN: 1 empty
!!!ENC: Krzysztof Stępień
!!!END: 2021-02-11
